public/images/dev36.svg

<svg width="101" height="101" viewBox="0 0 101 101" fill="none" xmlns="http://www.w3.org/2000/svg">
<path d="M35.945 2.29999C34.5713 1.61188 33.1213 1.08826 31.625 0.73999C11.55 -4.02501 -3.36503 15.66 4.83497 33.545C4.91497 33.625 19.44 65.49 21.785 70.545C21.785 70.545 48.5 58.28 53.965 45.705C59.03 34 50.5 12.625 48.93 9.41499L35.945 2.29999Z" fill="url(#paint0_linear_1_7740)"/>
<path d="M96.3 37.85C94.6048 35.2502 92.2995 33.1046 89.585 31.6C89.505 31.6 70.76 21.29 70.76 21.29C70.76 21.29 6.39501 58.605 6.32501 58.705C-0.939991 67 -2.57999 80.105 5.78001 91.5C8.30014 94.9289 11.8628 97.4496 15.935 98.685C23.51 101.03 30.23 100.09 35.855 97.125C36.01 97.045 88.735 69.085 88.89 68.925C99.195 63.535 103.965 49.79 96.305 37.835L96.3 37.85Z" fill="#0CB0F2"/>
<path d="M30.09 29.655L12.905 50.745L6.24004 58.705C-0.999965 67 -2.66496 80.105 5.69504 91.5C8.21362 94.9327 11.7765 97.457 15.85 98.695C23.425 101.04 30.22 100.1 35.85 97.135C35.85 97.135 37.18 96.43 39.445 95.18C46.585 91.32 56.445 65.38 63.15 45.32L30.09 29.655Z" fill="url(#paint1_linear_1_7740)"/>
<path d="M57.1 49.955L70.76 21.11C70.76 21.0888 70.7684 21.0684 70.7834 21.0534C70.7984 21.0384 70.8187 21.03 70.84 21.03C70.92 20.795 72.0099 17.985 72.09 17.825C72.8931 15.7985 73.185 13.6054 72.94 11.4393C72.695 9.2733 71.9205 7.20087 70.685 5.40498C69.1055 2.91548 66.6052 1.1521 63.73 0.499977C61.3125 -0.14328 58.7597 -0.0646625 56.3864 0.726127C54.0132 1.51692 51.9234 2.98527 50.375 4.94998C50.295 5.02998 47.33 8.44998 47.33 8.44998L25.455 35.405L57.1 49.955Z" fill="url(#paint2_linear_1_7740)"/>
<path d="M18.8149 18.71H81.3149V81.21H18.8149V18.71Z" fill="url(#paint3_linear_1_7740)"/>
<path d="M33.4999 32.535H25.0649V27.07H47.9499V32.535H39.5949V54.085H33.4999V32.535ZM47.9499 40.635C47.9499 32.825 53.7299 26.5 62.0899 26.5C67.1649 26.5 70.2899 28.22 72.7899 30.72L68.9649 35.095C66.8549 33.22 64.7449 32.05 62.0149 32.05C57.4849 32.05 54.1249 35.875 54.1249 40.485V40.565C54.1249 45.25 57.3299 49.065 62.0149 49.065C65.1399 49.065 67.0149 47.815 69.1249 45.86L72.9499 49.685C70.1399 52.655 67.0899 54.53 61.8599 54.53C58.2553 54.6132 54.7651 53.2616 52.1567 50.7722C49.5483 48.2829 48.0351 44.8596 47.9499 41.255C47.9499 41.0483 47.9499 40.8433 47.9499 40.64M25.0649 68.705H47.9499V72.845H25.0649V68.705Z" fill="white"/>
<defs>
<linearGradient id="paint0_linear_1_7740" x1="52.1668" y1="60.9858" x2="20.6259" y2="22.0234" gradientUnits="userSpaceOnUse">
<stop offset="0.06" stop-color="#0CB0F2"/>
<stop offset="0.21" stop-color="#10ADF2"/>
<stop offset="0.37" stop-color="#1EA5F3"/>
<stop offset="0.54" stop-color="#3497F5"/>
<stop offset="0.71" stop-color="#5283F7"/>
<stop offset="0.88" stop-color="#796AF9"/>
<stop offset="0.97" stop-color="#905CFB"/>
</linearGradient>
<linearGradient id="paint1_linear_1_7740" x1="16.3293" y1="94.968" x2="32.1486" y2="58.4469" gradientUnits="userSpaceOnUse">
<stop offset="0.06" stop-color="#0CB0F2"/>
<stop offset="0.2" stop-color="#0DB2EE"/>
<stop offset="0.35" stop-color="#12B7E0"/>
<stop offset="0.51" stop-color="#19C0CA"/>
<stop offset="0.68" stop-color="#23CCAC"/>
<stop offset="0.85" stop-color="#30DC85"/>
<stop offset="0.97" stop-color="#3BEA62"/>
</linearGradient>
<linearGradient id="paint2_linear_1_7740" x1="38.0076" y1="47.0218" x2="68.865" y2="7.37593" gradientUnits="userSpaceOnUse">
<stop offset="0.06" stop-color="#0CB0F2"/>
<stop offset="0.2" stop-color="#0DB2EE"/>
<stop offset="0.35" stop-color="#12B7E0"/>
<stop offset="0.51" stop-color="#19C0CA"/>
<stop offset="0.68" stop-color="#23CCAC"/>
<stop offset="0.85" stop-color="#30DC85"/>
<stop offset="0.97" stop-color="#3BEA62"/>
</linearGradient>
<linearGradient id="paint3_linear_1_7740" x1="50.0185" y1="19.6798" x2="50.0185" y2="82.1758" gradientUnits="userSpaceOnUse">
<stop/>
<stop offset="1"/>
</linearGradient>
</defs>
</svg>

<svg xmlns="http://www.w3.org/2000/svg" width="101" height="101" fill="none"><path fill="url(#a)" d="M35.945 2.3a19.5 19.5 0 0 0-4.32-1.56C11.55-4.025-3.365 15.66 4.835 33.545c.08.08 14.605 31.945 16.95 37 0 0 26.715-12.265 32.18-24.84C59.03 34 50.5 12.625 48.93 9.415z"/><path fill="#0CB0F2" d="M96.3 37.85a19 19 0 0 0-6.715-6.25c-.08 0-18.825-10.31-18.825-10.31S6.395 58.605 6.325 58.705C-.94 67-2.58 80.105 5.78 91.5a19.7 19.7 0 0 0 10.155 7.185c7.575 2.345 14.295 1.405 19.92-1.56.155-.08 52.88-28.04 53.035-28.2 10.305-5.39 15.075-19.135 7.415-31.09z"/><path fill="url(#b)" d="m30.09 29.655-17.185 21.09-6.665 7.96C-1 67-2.665 80.105 5.695 91.5a19.7 19.7 0 0 0 10.155 7.195c7.575 2.345 14.37 1.405 20-1.56 0 0 1.33-.705 3.595-1.955 7.14-3.86 17-29.8 23.705-49.86z"/><path fill="url(#c)" d="M57.1 49.955 70.76 21.11a.08.08 0 0 1 .08-.08c.08-.235 1.17-3.045 1.25-3.205a13.28 13.28 0 0 0-1.405-12.42A11.16 11.16 0 0 0 63.73.5a12.81 12.81 0 0 0-13.355 4.45c-.08.08-3.045 3.5-3.045 3.5L25.455 35.405z"/><path fill="url(#d)" d="M18.815 18.71h62.5v62.5h-62.5z"/><path fill="#fff" d="M33.5 32.535h-8.435V27.07H47.95v5.465h-8.355v21.55H33.5zm14.45 8.1c0-7.81 5.78-14.135 14.14-14.135 5.075 0 8.2 1.72 10.7 4.22l-3.825 4.375c-2.11-1.875-4.22-3.045-6.95-3.045-4.53 0-7.89 3.825-7.89 8.435v.08c0 4.685 3.205 8.5 7.89 8.5 3.125 0 5-1.25 7.11-3.205l3.825 3.825c-2.81 2.97-5.86 4.845-11.09 4.845a13.6 13.6 0 0 1-13.91-13.275v-.615M25.065 68.705H47.95v4.14H25.065z"/><defs><linearGradient id="a" x1="52.167" x2="20.626" y1="60.986" y2="22.023" gradientUnits="userSpaceOnUse"><stop offset=".06" stop-color="#0CB0F2"/><stop offset=".21" stop-color="#10ADF2"/><stop offset=".37" stop-color="#1EA5F3"/><stop offset=".54" stop-color="#3497F5"/><stop offset=".71" stop-color="#5283F7"/><stop offset=".88" stop-color="#796AF9"/><stop offset=".97" stop-color="#905CFB"/></linearGradient><linearGradient id="b" x1="16.329" x2="32.149" y1="94.968" y2="58.447" gradientUnits="userSpaceOnUse"><stop offset=".06" stop-color="#0CB0F2"/><stop offset=".2" stop-color="#0DB2EE"/><stop offset=".35" stop-color="#12B7E0"/><stop offset=".51" stop-color="#19C0CA"/><stop offset=".68" stop-color="#23CCAC"/><stop offset=".85" stop-color="#30DC85"/><stop offset=".97" stop-color="#3BEA62"/></linearGradient><linearGradient id="c" x1="38.008" x2="68.865" y1="47.022" y2="7.376" gradientUnits="userSpaceOnUse"><stop offset=".06" stop-color="#0CB0F2"/><stop offset=".2" stop-color="#0DB2EE"/><stop offset=".35" stop-color="#12B7E0"/><stop offset=".51" stop-color="#19C0CA"/><stop offset=".68" stop-color="#23CCAC"/><stop offset=".85" stop-color="#30DC85"/><stop offset=".97" stop-color="#3BEA62"/></linearGradient><linearGradient id="d" x1="50.019" x2="50.019" y1="19.68" y2="82.176" gradientUnits="userSpaceOnUse"><stop/><stop offset="1"/></linearGradient></defs></svg>
